!!!COM: Bach, Johann Sebastian
!!!OPR: Joh. Seb. Bachs vierstimmige Choralgesänge
!!!XEN: Four-part Chorales
!!!OTL: 31. Christus ist erstanden
!!!SCT: BWV 284
!!!SCA: Thematisch-systematisches Verzeichnis der musikalischen Werke Johann Sebastian Bach: Bach-Werke-Verzeichnis (Schmieder)
!!!YOR: Bach Gesellschaft Edition xxxix
!!!ENC: Steven Rasmussen
!!!CDT: 1685/3//-1750/7/28/
!!!OCY: Deutschland
!!!YEC: Copyright (c) 1994, 2000 Center for Computer Assisted Research in the Humanities
!!!YEM: Rights to all derivative editions reserved
!!!YEN: United States of America
**kern	**silbe	**kern	**silbe	**kern	**kern	**silbe
*I:[BASSO]	*I:[BASSO]	*I:[TENORE]	*I:[TENORE]	*I:[ALTO]	*I:[SOPRANO]	*I:[SOPRANO]
*clefF4	*	*clefGv2	*	*clefG2	*clefG2	*
*k[]	*	*k[]	*	*k[]	*k[]	*
*C:	*	*C:	*	*C:	*C:	*
*M4/4	*	*M4/4	*	*M4/4	*M4/4	*
=1-	=1-	=1-	=1-	=1-	=1-	=1-
4c	.	4e	.	4g	4cc	Chri-
4B	.	4d	.	4g	4g	-stus
4A	.	4c	.	8gL	4a	ist
.	.	.	.	8f#J	.	.
8GL	.	4d	.	4g	4b	er-
8FJ	.	.	.	.	.	.
=2	=2	=2	=2	=2	=2	=2
4E	.	8cL	.	4.g	2cc	-stan-
.	.	8B-J	.	.	.	.
4F	.	4A	.	.	.	.
.	.	.	.	8f	.	.
4C;	.	4G;	.	(8fL	4cc;	-den,
.	.	.	.	8e;J)	.	.
8cL	.	4c	.	4e	4g	hat
8B-J	.	.	.	.	.	.
=3	=3	=3	=3	=3	=3	=3
4A	.	4c	.	8eL	4cc	Ã¼-
.	.	.	.	8f#J	.	.
4G	.	4d	.	4g	4b-	-ber-
4C	.	4e-	.	4g	2a	-wun-
4D	.	8dL	.	4f#	.	.
.	.	8cJ	.	.	.	.
=4	=4	=4	=4	=4	=4	=4
2GG;	.	2B-;	.	2d;	2g;	-den;
4G	.	4B-	.	(8d	4g	Gnad'
.	.	.	.	4e-)	.	.
4F#	.	4c	.	.	4a	ist
.	.	.	.	8d	.	.
=5	=5	=5	=5	=5	=5	=5
4G	.	8B-L	.	8dL	4b-	nun
.	.	8GJ	.	8b-J	.	.
4C	.	4e-	.	8aL	4cc	vor-
.	.	.	.	8gJ	.	.
4D	.	[4d	.	8f#	4b-	-han-
.	.	.	.	4g	.	.
4DD	.	8.dL]	.	.	4a	.
.	.	.	.	8f#	.	.
.	.	16cJk	.	.	.	.
=6	=6	=6	=6	=6	=6	=6
2GG;	.	2B-;	.	2d;	2g;	-den,
8CL	.	4c	.	8eL	4g	Wahr-
8DJ	.	.	.	8fJ	.	.
8EL	.	8cL	.	4g	4cc	-heit
8FJ	.	8dJ	.	.	.	.
=7	=7	=7	=7	=7	=7	=7
4G	wird	8eL	wird	4g	4cc	wird
.	.	16dL	.	.	.	.
.	.	16cJJ	.	.	.	.
4GG	fun-	8dL	fun-	4g	4b	fun-
.	.	[8fJ	.	.	.	.
2C;	-den.	8fL]	.	2g;	2cc;	-den.
.	.	16eL	.	.	.	.
.	.	16dJJ	.	.	.	.
.	.	4e;	-den.	.	.	.
=8	=8	=8	=8	=8	=8	=8
8FL	.	4f	.	4a	4cc	Da-
8GJ	.	.	.	.	.	.
8FL	.	4f	.	8aL	4cc	-rum,
8EJ	.	.	.	8gJ	.	.
8DL	.	8fL	.	8fL	4dd	lie-
8EJ	.	8eJ	.	8gJ	.	.
8FL	.	8dL	.	4a	4dd	-ben
8GJ	.	8eJ	.	.	.	.
=9	=9	=9	=9	=9	=9	=9
8AL	.	4.f	.	4a	4cc	Leu-
8F	.	.	.	.	.	.
8G	.	.	.	8b-L	4b-	.
8CJ	.	8e	.	8gJ	.	.
2F;	.	2c;	.	2f;	2a;	-te,
=10	=10	=10	=10	=10	=10	=10
8cL	.	4c	.	4e	4g	freut
8B-J	.	.	.	.	.	.
4A	.	4c	.	8eL	4a	euch
.	.	.	.	8f#J	.	.
8GL	.	4d	.	4.g	4b-	heu-
8BB-	.	.	.	.	.	.
8C	.	8e-L	.	.	4a	.
8DJ	.	16dL	.	8f#	.	.
.	.	16cJJ	.	.	.	.
=11	=11	=11	=11	=11	=11	=11
2E-;	.	2B-;	.	2g;	2g;	-te,
4G	.	8B-L	.	8dL	4b-	lo-
.	.	8dJ	.	8b-J	.	.
4F	.	4f	.	8b-L	4cc	-bet
.	.	.	.	8aJ	.	.
=12	=12	=12	=12	=12	=12	=12
8B-L	.	4f	.	4b-	4dd	eu-
8AJ	.	.	.	.	.	.
8GL	.	8e-L	.	4b-	8ee-L	-ren
8FJ	.	8fJ	.	.	8ddJ	.
8E-L	.	8gL	.	4b-	2cc	Her-
8CJ	.	8e-	.	.	.	.
4F	.	8c	.	4a	.	.
.	.	8fJ	.	.	.	.
=13	=13	=13	=13	=13	=13	=13
2BB-;	.	2f;	.	2b-;	2dd;	-ren,
4B-	.	4f	.	4.b-	4dd	Je-
4F	.	4f	.	.	4cc	-sum,
.	.	.	.	8a	.	.
=14	=14	=14	=14	=14	=14	=14
8B-L	.	4f	.	4b-	4dd	den
8AJ	.	.	.	.	.	.
8GL	.	8e-L	.	4a	4cc	KÃ¶-
8F#J	.	8dJ	.	.	.	.
8GL	.	4d	.	4g	4b-	-nig
8AJ	.	.	.	.	.	.
8B-L	.	4c	.	4e	4g	der
8cJ	.	.	.	.	.	.
=15	=15	=15	=15	=15	=15	=15
4F	.	4c	.	8fL	4a	Eh-
.	.	.	.	8e	.	.
4G	.	4G	.	8d	4b	.
.	.	.	.	8fJ	.	.
2C;	.	2G;	.	2e;	2cc;	-ren.
==|!	==|!	==|!	==|!	==|!	==|!	==|!
*-	*-	*-	*-	*-	*-	*-
!!!RWG: Key is interpreted using the Humdrum key tool.
!!!END: 1994/05/11
!!!EMD: Converted from MuseData to Humdrum Dec 19, 2000, by Andreas Kornstaedt using muse2kern.
!!!EED: Craig Stuart Sapp
!!!EEV: 2024/03/31
!!!ONB: Some non-unicode characters
